!!!!SEGMENT: pl-sa--l-1643--097_anonim--veni-creator-spiritus.krn
!!!cenid: 16xx:1455
!!!COM: Anonim
!!!COM-rismID: pe30004985
!!!CDT:
!!!CNT:
!!!OTL: Veni creator spiritus
!!!PDT:
!!!AGN: Sacred
!!!SMS-siglum: PL-SA
!!!SMS-shelfmark: L 1643
!!!SMS-shelfwork: 097 W
!!!SMS-variant:
!!!SMS-altvar:
!!!NIFC-rismSourceID: 1001064772
!!!NIFC-islandoraID:
!!!URL-pdf-islandora:
!!!URL-scan:
!!!ONB-nifc: UWAGA: 8 ksiąg. Primi chori: 1mus Cantus (176-177), C 2dus (162-164), C 3tius (172-173), Bassus (x); Secondi chori: Primus Cantus (x), C 2dus (x), Altus (x), Bassus (169-170). UWAGA: Nie dodawać pustych linii, chyba że w rękopisie pojawiają się dodatkowe oznaczenia dotyczące pełnej obsady (a 4, a 8 itp.)
!!!AIN: 4 empty
!!!key:
**kern	**text	**text	**text	**text	**text	**text	**text	**kern	**text	**text	**text	**text	**text	**text	**text	**kern	**text	**text	**text	**text	**text	**text	**text	**kern	**text	**text	**text	**text	**text	**text	**text
*part4	*part4	*part4	*part4	*part4	*part4	*part4	*part4	*part3	*part3	*part3	*part3	*part3	*part3	*part3	*part3	*part2	*part2	*part2	*part2	*part2	*part2	*part2	*part2	*part1	*part1	*part1	*part1	*part1	*part1	*part1	*part1
*group2	*group2	*group2	*group2	*group2	*group2	*group2	*group2	*group1	*group1	*group1	*group1	*group1	*group1	*group1	*group1	*group1	*group1	*group1	*group1	*group1	*group1	*group1	*group1	*group1	*group1	*group1	*group1	*group1	*group1	*group1	*group1
*staff4	*staff4	*staff4	*staff4	*staff4	*staff4	*staff4	*staff4	*staff3	*staff3	*staff3	*staff3	*staff3	*staff3	*staff3	*staff3	*staff2	*staff2	*staff2	*staff2	*staff2	*staff2	*staff2	*staff2	*staff1	*staff1	*staff1	*staff1	*staff1	*staff1	*staff1	*staff1
*	*v:1	*v:2	*v:4	*v:3	*v:5	*v:6	*v:7	*	*	*	*	*	*	*	*	*	*	*	*	*	*	*	*	*	*	*	*	*	*	*	*
*Iempty	*	*	*	*	*	*	*	*Iempty	*	*	*	*	*	*	*	*Iempty	*	*	*	*	*	*	*	*Iempty	*	*	*	*	*	*	*
*I"Baſsus 2di Chori	*	*	*	*	*	*	*	*I"Cantus 3tius Primi Chori	*	*	*	*	*	*	*	*I"Cantus 2dus Primi Chori.	*	*	*	*	*	*	*	*I"Im(us) Cantus Primi Chori	*	*	*	*	*	*	*
*I'Coro 2 B	*	*	*	*	*	*	*	*I'Coro 1 S 3	*	*	*	*	*	*	*	*I'Coro 1 S 2	*	*	*	*	*	*	*	*I'Coro 1 S 1	*	*	*	*	*	*	*
*clefC3	*	*	*	*	*	*	*	*clefC2	*	*	*	*	*	*	*	*clefC1	*	*	*	*	*	*	*	*clefG2	*	*	*	*	*	*	*
*k[]	*	*	*	*	*	*	*	*k[]	*	*	*	*	*	*	*	*k[]	*	*	*	*	*	*	*	*k[]	*	*	*	*	*	*	*
*G:	*	*	*	*	*	*	*	*G:	*	*	*	*	*	*	*	*G:	*	*	*	*	*	*	*	*G:	*	*	*	*	*	*	*
*M2/1	*	*	*	*	*	*	*	*M2/1	*	*	*	*	*	*	*	*M2/1	*	*	*	*	*	*	*	*M2/1	*	*	*	*	*	*	*
*met(C|)	*	*	*	*	*	*	*	*met(C|)	*	*	*	*	*	*	*	*met(C|)	*	*	*	*	*	*	*	*met(C|)	*	*	*	*	*	*	*
=1-	=1-	=1-	=1-	=1-	=1-	=1-	=1-	=1-	=1-	=1-	=1-	=1-	=1-	=1-	=1-	=1-	=1-	=1-	=1-	=1-	=1-	=1-	=1-	=1-	=1-	=1-	=1-	=1-	=1-	=1-	=1-
!LO:TX:t=P:problem=zwrotka 4 wpisana przed 3, numeracja bez kropek	!	!	!	!	!	!	!	!	!	!	!	!	!	!	!	!	!	!	!	!	!	!	!	!	!	!	!	!	!	!	!
4G/	Ve-	Qui	Tu	Ac-	Ho-	Per	Glo-	1g	Ve-	Qui	Tu	Ac-	Ho-	Per	De-	2.b\	Ve-	Qui	Tu	Ac-	Ho-	Per	De-	1dd	Ve-	Qui	Tu	Ac-	Ho-	Per	De-
4A/	.	.	.	.	.	.	.	.	.	.	.	.	.	.	.	.	.	.	.	.	.	.	.	.	.	.	.	.	.	.	.
4B/	.	.	.	.	.	.	.	.	.	.	.	.	.	.	.	.	.	.	.	.	.	.	.	.	.	.	.	.	.	.	.
4c/	.	.	.	.	.	.	.	.	.	.	.	.	.	.	.	4cc\	.	.	.	.	.	.	.	.	.	.	.	.	.	.	.
!	!	!	!	!	!	!	!	!LO:TX:t=P:problem=# below	!	!	!	!	!	!	!	!	!	!	!	!	!	!	!	!	!	!	!	!	!	!	!
1d	-ni	pa-	ſe-	-cen-	-ſtem	te	-ri-	1f#X	-ni	di-	ſe-	-cen-	-ſtem	te	-o	1.dd	-ni	di-	ſe-	-cen-	-ſtem	te	-o	1.dd	-ni	di-	ſe-	-cen-	-ſtem	te	-o
=2-	=2-	=2-	=2-	=2-	=2-	=2-	=2-	=2-	=2-	=2-	=2-	=2-	=2-	=2-	=2-	=2-	=2-	=2-	=2-	=2-	=2-	=2-	=2-	=2-	=2-	=2-	=2-	=2-	=2-	=2-	=2-
1g	cre-	-ra-	-pti-	-de	re-	ſci-	-a	2g\	cre-	.	-pti-	-de	re-	ſci-	pa-	.	.	.	.	.	.	.	.	.	.	.	.	.	.	.	.
.	.	.	.	.	.	.	.	2d/	-a-	-ce-	-for-	lu-	-pel-	-a-	.	2b\	cre-	.	-pti-	-de	re-	ſci-	pa-	2gg\	Cre-	.	-pti-	-de	re-	ſci-	pa-
!	!	!	!	!	!	!	!	!	!	!	!	!	!	!	!	!	!	!	!	!	!	!	!	!LO:TX:t=P:problem=# below	!	!	!	!	!	!	!
1d	-a-	-cli-	-for-	lu-	-pel-	-a-	-pa-	1d	-tor	-ris	-mis	-men	-las	-mus	-tri	1a	-a-	-ce-	-for-	lu-	-pel-	-a-	-tri	1ff#X	-a-	-ce-	-for-	lu-	-pel-	-a-	-tri
=3-	=3-	=3-	=3-	=3-	=3-	=3-	=3-	=3-	=3-	=3-	=3-	=3-	=3-	=3-	=3-	=3-	=3-	=3-	=3-	=3-	=3-	=3-	=3-	=3-	=3-	=3-	=3-	=3-	=3-	=3-	=3-
!!LO:TX:t=P:problem:oddech/cezura na różnej wysokości:global
2g,\	-tor	-tuſ	-mis	-men	-las	-muſ	-tri	2r	.	.	.	.	.	.	.	2b,\	-tor	-ris	-mis	-men	-las	-mus	ſit	2gg,\	-tor	-ris	-mis	-men	-[l]as	-mus	ſit
2G/	ſpi	di-	mu-	ſen-	lon-	da	do-	2d/	Spi-	pa-	mu-	ſen-	lon-	da	ſit	2dd\	Spi-	pa-	mu-	ſen-	lon-	da	glo-	4dd\	Spi-	pa-	mu-	ſen-	lon-	da	glo-
.	.	.	.	.	.	.	.	.	.	.	.	.	.	.	.	.	.	.	.	.	.	.	.	4ee\	.	-ra-	.	.	.	.	-ri-
!	!	!	!	!	!	!	!	!	!	!	!	!	!	!	!	!	!	!	!	!	!	!	!	!LO:SIC:v:l:s=-cli-:2	!	!	!	!	!	!	!
!	!	!	!	!	!	!	!	!	!	!	!	!	!	!	!	!	!	!	!	!	!	!	!	!LO:TX:t=P:problem=# below	!	!	!	!	!	!	!
1d	-ri-	-ce-	-ne-	-ſi-	-gi-	pa-	-mi-	1d	-ri-	-ra-	-ne-	-ſi-	-gi-	pa-	glo-	1dd	-ri-	-ra-	-ne-	-ſi-	-gi-	pa-	-ri-	1ff#X	-ri-	-cle-	-ne-	-ſi-	-gi-	pa-	-a
=4-	=4-	=4-	=4-	=4-	=4-	=4-	=4-	=4-	=4-	=4-	=4-	=4-	=4-	=4-	=4-	=4-	=4-	=4-	=4-	=4-	=4-	=4-	=4-	=4-	=4-	=4-	=4-	=4-	=4-	=4-	=4-
2G,/	-tuſ	-riſ	-re	-buſ	-us	-trem	-no	1d,	-tus	-clitus	-re	-bus	-us	-trem	-ria	2dd\	-tus	-cli-	-re	-bus	-us	-trem	-a	2gg,\	-tus	-tus	-re	-bus	-us	-trem	ſit
2g\	ſpi	di-	mu-	ſen-	lon-	da	do-	.	.	.	.	.	.	.	.	2dd\	Spi-	-tus	mu-	ſen-	lon-	da	ſit	2gg\	Spi-	pa-	mu-	ſen-	lon-	da	glo-
*lig	*	*	*	*	*	*	*	*	*	*	*	*	*	*	*	*	*	*	*	*	*	*	*	*	*	*	*	*	*	*	*
1c	-ri-	-ce-	-ne-	-ſi-	-gi-	pa-	-mi-	1.g	Spi-	pa-	mu-	ſen-	lon-	da	ſit	2.cc\	-ri-	-pa-	-ne-	-ſi-	-gi-	pa-	glo-	2.gg\	-ri-	-ra-	-ne-	-ſi-	-gi-	pa-	.
.	.	.	.	.	.	.	.	.	.	.	.	.	.	.	.	8b\L	.	-ra-	.	.	.	.	.	8ff#yX\L	.	.	.	.	-us	.	.
.	.	.	.	.	.	.	.	.	.	.	.	.	.	.	.	8a\J	.	.	.	.	.	.	.	8ee\J	.	.	.	.	.	.	.
=5-	=5-	=5-	=5-	=5-	=5-	=5-	=5-	=5-	=5-	=5-	=5-	=5-	=5-	=5-	=5-	=5-	=5-	=5-	=5-	=5-	=5-	=5-	=5-	=5-	=5-	=5-	=5-	=5-	=5-	=5-	=5-
1G	.	.	.	.	.	.	.	.	.	.	.	.	.	.	.	1b	.	-cli-	.	.	.	.	-ri-	1dd	.	-cli-	.	.	.	.	-ri-
.	.	.	.	.	.	.	.	2g\	-ri-	-ra-	-ne-	-ſi-	-gi-	pa-	glo-	.	.	.	.	.	.	.	.	.	.	.	.	.	.	.	.
*Xlig	*	*	*	*	*	*	*	*	*	*	*	*	*	*	*	*	*	*	*	*	*	*	*	*	*	*	*	*	*	*	*
!LO:N:vis=0	!	!	!	!	!	!	!	!LO:N:vis=0	!	!	!	!	!	!	!	!LO:N:vis=0	!	!	!	!	!	!	!	!LO:N:vis=0	!	!	!	!	!	!	!
1c;	-tuſ,	-riſ,	-re,	-bus,	-uſ,	-trem,	-no;	1g	-tus	-clitus	-re	-bus	-us	-trem	-ria	1cc;<	-tus	-tus	-re	-bus	-us	-trem	-a	1ee;<	-tus	-tus	-re	-bus	.	-trem	-a
=6||-	=6||-	=6||-	=6||-	=6||-	=6||-	=6||-	=6||-	=6||-	=6||-	=6||-	=6||-	=6||-	=6||-	=6||-	=6||-	=6||-	=6||-	=6||-	=6||-	=6||-	=6||-	=6||-	=6||-	=6||-	=6||-	=6||-	=6||-	=6||-	=6||-	=6||-	=6||-
1c	Men-	Do-	Dex-	In-	Pa-	Noſ-	Na-	1g	Men-	Al-	Di-	In-	Pa-	Noſ-	Et	1cc	Men-	Al-	Di-	In-	Pa-	Noſ-	Et	1ee	Men-	Al-	Di-	In-	Pa-	Noſ-	Et
2G/	-teſ	-num	-t[e]-	-fun-	-cem	-ka-	-to-	2g\	-tes	-tiſ-	-gi-	-fun-	-cem-	-ca-	fi-	2b\	-tes	-tiſ-	-gi-	-fun-	-cem-	-ca-	Fi-	2dd\	-tes	-tiſ-	-gi-	-fun-	-cem-	-ca-	[Fi-
2g\	tu-	de-	-r[ae]	-de	que	-muſ	-que	2g\	tu-	-si-	-tus	-de	-que	-mus	-lio	2b\	tu-	-si-	-tus	-de	-que	-mus	-lio	2dd\	tu-	-si-	-tus	-de	-que	-mus	-lio]
=7-	=7-	=7-	=7-	=7-	=7-	=7-	=7-	=7-	=7-	=7-	=7-	=7-	=7-	=7-	=7-	=7-	=7-	=7-	=7-	=7-	=7-	=7-	=7-	=7-	=7-	=7-	=7-	=7-	=7-	=7-	=7-
!LO:TX:t=P:3:problem=nieczytelny tekst	!	!	!	!	!	!	!	!	!	!	!	!	!	!	!	!	!	!	!	!	!	!	!	!	!	!	!	!	!	!	!
4d\	-o-	.	[De-	a-	do-	at-	qui	2.fny\	-o-	-mi	pa-	a-	do-	a-	qui	1a	-o-	-mi	pa-	a-	do-	at-	qui	1dd	-o-	-mi	[pa-	lu-	do-	at-	qui
4e\	.	.	.	.	.	.	.	.	.	.	.	.	.	.	.	.	.	.	.	.	.	.	.	.	.	.	.	.	.	.	.
4f\	.	.	-i	-mo-	.	.	.	.	.	.	.	.	.	.	.	.	.	.	.	.	.	.	.	.	.	.	.	.	.	.	.
4g\	.	.	.	.	.	.	.	4g\	.	.	.	.	.	.	a-	.	.	.	.	.	.	.	.	.	.	.	.	.	.	.	.
2a,\	-rum	-i	-tu]	-rem	neſ	-que	.	2a\	.	do-	-ter-	-mo-	.	.	-mor	2a\	-rum	do-	-ter-	-mo-	-nes	-que	a-	2ee\	-rum	do-	-t]er-	-men	-nes	-que	a-
2e\	ui-	al-	di-	cor-	pro-	fi-	a-	2g,\	-rum	-num	-nae	-rem	-nes	-tque	tuis	2cc\	ui-	-num	-nae	-rem	.	Fi-	-mor	2ee\	Vi-	-num	-nae	cor-	pro-	Fi-	-mor
=8-	=8-	=8-	=8-	=8-	=8-	=8-	=8-	=8-	=8-	=8-	=8-	=8-	=8-	=8-	=8-	=8-	=8-	=8-	=8-	=8-	=8-	=8-	=8-	=8-	=8-	=8-	=8-	=8-	=8-	=8-	=8-
!LO:SIC:v:l:s=-tiſ-:2	!	!	!	!	!	!	!	!	!	!	!	!	!	!	!	!	!	!	!	!	!	!	!	!	!	!	!	!	!	!	!
4g\	-ſi-	-tij-	-gi-	-dij-	-ti-	-li-	-mor-	2g\	vi-	De-	Dex-	cor-	pro-	Fi-	.	1g	-ſi-	De-	Dex-	cor-	pro-	-li-	tu-	1dd	-ſi-	De-	dex-	-di-	-ti-	-li-	tu-
4f\	.	.	.	.	.	.	.	.	.	.	.	.	.	.	.	.	.	.	.	.	.	.	.	.	.	.	.	.	.	.	.
4e\	.	-ſi-	.	.	.	.	-tu-	2.g\	-ſi-	-i	-te-	-di-	-ti-	-li-	.	.	.	.	.	.	.	.	.	.	.	.	.	.	.	.	.
4d\	.	.	.	.	.	.	.	.	.	.	.	.	.	.	.	.	.	.	.	.	.	.	.	.	.	.	.	.	.	.	.
!	!	!	!	!	!	!	!	!	!	!	!	!	!	!	!	!LO:TX:t=P:problem=zmieniony tekst na s. 162 – brak zgodności z początkiem tekstu na s. 163	!	!	!	!	!	!	!	!	!	!	!	!	!	!	!
1c,	-ta	-mi	-tuſ	-buſ	-nuſ,	-um	-is	.	.	.	.	.	.	.	.	1g	-ta	-i	-te-	-di-	-ti-	-um	-is	2.ee\	-ta	-i	-te-	-bus	-nus	-um	-is
.	.	.	.	.	.	.	.	4g\	.	.	.	.	.	.	.	.	.	.	.	.	.	.	.	.	.	.	.	.	.	.	.
.	.	.	.	.	.	.	.	1g,\	-ta	.	-ra[e]	-bus	-nus	-um	.	.	.	.	.	.	.	.	.	.	.	.	.	.	.	.	.
.	.	.	.	.	.	.	.	.	.	.	.	.	.	.	.	.	.	.	.	.	.	.	.	4ffny\	.	.	.	.	.	.	.
=9-	=9-	=9-	=9-	=9-	=9-	=9-	=9-	=9-	=9-	=9-	=9-	=9-	=9-	=9-	=9-	=9-	=9-	=9-	=9-	=9-	=9-	=9-	=9-	=9-	=9-	=9-	=9-	=9-	=9-	=9-	=9-
1G	ui-	al-	di-	cor-	pro-	fi-	a-	.	.	.	.	.	.	.	.	1b	ui-	do-	-rae	-bus	-nus	Fi-	a-	2gg\	.	do-	-rae	.	.	.	a-
.	.	.	.	.	.	.	.	1g	vi-	do-	Dex-	cor-	pro-	fi-	.	.	.	.	.	.	.	.	.	2gg\	Vi-	-num	Dex-	cor-	pro-	Fi-	-mor
!LO:SIC:v:l:s=-tis-:2	!	!	!	!	!	!	!	!	!	!	!	!	!	!	!	!	!	!	!	!	!	!	!	!	!	!	!	!	!	!	!
2.c/	-ſi-	-tiſ-	-gi-	-di-	-ti-	-li-	-mor-	.	.	.	.	.	.	.	.	2.cc\	-si-	-tijs-	gi-	cor-	pro-	.	-mor	2.ee\	-ſi-	De-	-te-	-di-	-ti-	-li-	tu-
.	.	.	.	.	.	.	.	2.g\	-ſi-	-num	-te-	-di-	-ti-	-li-	.	.	.	.	.	.	.	.	.	.	.	.	.	.	.	.	.
4c/	.	-[s]i-	.	.	.	.	-tu-	.	.	.	.	.	.	.	.	4cc\	.	-ſi-	.	-di-	-ti-	-li-	t[u-	4ff\	.	.	.	.	.	.	.
=10-	=10-	=10-	=10-	=10-	=10-	=10-	=10-	=10-	=10-	=10-	=10-	=10-	=10-	=10-	=10-	=10-	=10-	=10-	=10-	=10-	=10-	=10-	=10-	=10-	=10-	=10-	=10-	=10-	=10-	=10-	=10-
0G;	-ta,	-mi,	-tuſ,	-buſ,	-nus,	-um,	-is,	.	.	.	.	.	.	.	.	0b;<	-ta,	-mi,	-tuſ,	-bus,	-nuſ,	-um,	-i]s,	0gg;<	-ta	-i	-rae	-bus	-nus	-um	-is
.	.	.	.	.	.	.	.	4g\	.	De-	.	.	.	.	.	.	.	.	.	.	.	.	.	.	.	.	.	.	.	.	.
!	!	!	!	!	!	!	!	!LO:N:vis=0	!	!	!	!	!	!	!	!	!	!	!	!	!	!	!	!	!	!	!	!	!	!	!
.	.	.	.	.	.	.	.	1.g	-ta	-i	-rae	-bus	-nus	-um	.	.	.	.	.	.	.	.	.	.	.	.	.	.	.	.	.
=11||	=11||	=11||	=11||	=11||	=11||	=11||	=11||	=11||	=11||	=11||	=11||	=11||	=11||	=11||	=11||	=11||	=11||	=11||	=11||	=11||	=11||	=11||	=11||	=11	=11||	=11||	=11||	=11||	=11||	=11||	=11||
4c/	Im-	Fons	Tu	In-	Du-	Te	Sur-	1g	Im-	Fons	Tu	In-	Du-	Te-	.	1cc	Im-	Fons	Tu	In-	Du-	Te	Sur-	1ee	Im-	Fons	Tu	In-	Du-	Te-	Sur-
4d\	.	.	.	.	.	.	-re-	.	.	.	.	.	.	.	.	.	.	.	.	.	.	.	.	.	.	.	.	.	.	.	.
4e\	.	.	ri-	.	.	.	-xit	.	.	.	.	.	.	.	.	.	.	.	.	.	.	.	.	.	.	.	.	.	.	.	.
4f\	.	.	.	.	.	.	ac	.	.	.	.	.	.	.	.	.	.	.	.	.	.	.	.	.	.	.	.	.	.	.	.
2g\	-ple	ui-	te	-fir-	-cto-	u-	pa-	2g\	-ple	vi-	ri-	-fir-	-cto-	-que	.	2b\	-ple	wi-	ri-	-fir-	-cto-	u-	-re-	2dd,\	-ple	Vi-	ri-	-fir-	-cto-	-que	-[r]e-
2g\	ſu-	-uus	pro-	-ma	-re	-tri-	-ra-	2g\	ſu-	-uus	te	-ma	-re	u-	.	2b\	ſu-	-uus	-te	-ma	-re	-tri-	-xit	2dd\	ſu-	-uus	-te	-ma	-re	u-	-xi[t]
=12-	=12-	=12-	=12-	=12-	=12-	=12-	=12-	=12-	=12-	=12-	=12-	=12-	=12-	=12-	=12-	=12-	=12-	=12-	=12-	=12-	=12-	=12-	=12-	=12-	=12-	=12-	=12-	=12-	=12-	=12-	=12-
1c	-per-	ig-	-miſ-	no-	ſic	-uſ-	-cli-	1g	-per-	i-	pro-	no-	ſic	-tri-	.	1cc	-per-	i-	pro-	no-	ſic	-us-	ad	1ee	-per-	i-	pro-	no-	ſic	-tri-	ac
2f,\	-na,	-nis,	-[s]um,	-ſtri,	te,	-que,	-to	2a\	.	-gnis	-miſ-	.	.	-uſ-	.	2cc,\	-na	-gnis,	-miſ-	-ſtri,	te	-que,	pa-	2ff,\	-na	-gnis	-miſ-	-ſtri	te	-uſ-	a-
2c/	im-	fonſ	.	in-	pre-	te	ſur-	2g,\	-na	fons	-ſum	-ſtri	te	-que	.	2cc\	im-	Fons	-sum,	in-	du-	te	-ra-	2ee\	im-	fons	.	In-	Du-	-que	-mor
=13-	=13-	=13-	=13-	=13-	=13-	=13-	=13-	=13-	=13-	=13-	=13-	=13-	=13-	=13-	=13-	=13-	=13-	=13-	=13-	=13-	=13-	=13-	=13-	=13-	=13-	=13-	=13-	=13-	=13-	=13-	=13-
2G/	-ple	ui-	pa-	-fir-	-vio	u-	.	2g\	gra-	vi-	pa-	cor-	prae-	Spi-	.	2b\	-ple	ui-	tu	-fir-	-cto-	u-	-cli-	2dd\	-ple	Vi-	.	-fir-	-cto-	Spi-	tu-
2g\	ſu-	-uus	.	-ma	du-	-tri-	-re-	2d/	.	-uus	-tris	.	.	-ri-	.	2dd\	ſu-	-uvs	.	-ma	-re	-tri-	-to,	2gg\	ſu-	-uus	-ſum	-ma	-re	-ri-	-is
!	!	!	!	!	!	!	!	!	!	!	!	!	!	!	!	!	!	!	!	!	!	!	!	!LO:TX:t=P:problem=# below	!	!	!	!	!	!	!
1d	-per-	i-	.	no-	-cto-	-uſ-	-xit	1d	-ti-	i-	tu	-po-	-ui-	-tum	.	1dd	-per-	i-	ri-	no-	ſic	-us-	ſur-	1ff#X	-per-	i-	pa-	no-	ſic	-tum	.
=14-	=14-	=14-	=14-	=14-	=14-	=14-	=14-	=14-	=14-	=14-	=14-	=14-	=14-	=14-	=14-	=14-	=14-	=14-	=14-	=14-	=14-	=14-	=14-	=14-	=14-	=14-	=14-	=14-	=14-	=14-	=14-
2g,\	-na,	-gnis,	-tris,	-ſtri,	-re	-que	ad	2d/	-a	-gnis	ri-	-ris	-o	Te-	.	2dd,\	-na	-gnis,	-te	-ſtri,	te,	-que,	-re-	2gg,\	-na	-gnis	-tri[s]	-ſtri	te	Te-	Sur-
!LO:SIC:v:l:s=fonſ:2	!	!	!	!	!	!	!	!	!	!	!	!	!	!	!	!	!	!	!	!	!	!	!	!	!	!	!	!	!	!	!
2G/	im-	ſonſ	pro-	in-	ſic	-te	pa-	2g\	Im-	fons	-te	In-	Du-	-que	.	2b\	im-	fons	pro-	in-	du-	te	-xit	2gg\	Im-	fons	Tu	In-	Du-	-que	-re-
2c\	-ple	ui-	-miſ-	-fir-	te	u-	-ra-	2g\	-ple	vi-	pro-	-fir-	-cto-	u-	.	2cc\	-ple	vi-	-miſ-	-fir-	-cto-	u-	ad	2ee\	-ple	Vi-	ri-	-fir-	-cto-	u-	-x[it]
2c\	ſu-	-uus	-sum	-ma	pre-	-tri-	-cli-	2g\	ſu-	-uus	-miſ-	-ma	-re	-tri-	.	2cc\	ſu-	-uvs	-sum,	-ma	-re	-tri-	pa-	2ee\	ſu-	-uus	-te	-ma	-re	-t[ri]-	ac
=15-	=15-	=15-	=15-	=15-	=15-	=15-	=15-	=15-	=15-	=15-	=15-	=15-	=15-	=15-	=15-	=15-	=15-	=15-	=15-	=15-	=15-	=15-	=15-	=15-	=15-	=15-	=15-	=15-	=15-	=15-	=15-
1.G	-per-	ig-	pa-	no-	-ui-	-uſ-	-to	1.g	-per-	i-	-ſum	no-	ſic	-uſ-	.	1.g	-per-	i-	pro-	no-	ſic	-uſ-	-ra-	1.dd	-per-	i-	pro-	no-	ſic	-uſ-	a-
2c/	-na,	-nis	.	-ſtri	o	-que	pa-	2g\	-na	-gnis	pa-	-ſtri	te	-que	.	2cc\	-na	-gnis	-miſ-	-ſtri	te,	-que,	-cli-	2ee,\	-na	-gnis	-miſ-	-ſtri	te	-que	.
=16-	=16-	=16-	=16-	=16-	=16-	=16-	=16-	=16-	=16-	=16-	=16-	=16-	=16-	=16-	=16-	=16-	=16-	=16-	=16-	=16-	=16-	=16-	=16-	=16-	=16-	=16-	=16-	=16-	=16-	=16-	=16-
1.F	gra-	cha-	-tris	cor-	pre-	ſpi-	-ra-	1.f	gra-	cha-	-tris	Cor-	prae-	Spi-	.	1.cc	gra-	cha-	-sum	cor-	pre-	ſpi-	-to	1.ffny	gra-	cha-	-[s]um	Cor-	prae-	Spi-	-mor
2F/	-ti-	-ri-	-pa-	-po-	-ui-	-ri-	-cli-	2f\	-ti-	-ri-	pa-	-po-	-ui-	-ri-	.	2cc\	-ti-	-ri-	-pa-	-po-	-ui-	-ri-	pa-	2ff\	-ti-	-ri-	pa-	-po-	-ui-	-ri-	tu-
=17-	=17-	=17-	=17-	=17-	=17-	=17-	=17-	=17-	=17-	=17-	=17-	=17-	=17-	=17-	=17-	=17-	=17-	=17-	=17-	=17-	=17-	=17-	=17-	=17-	=17-	=17-	=17-	=17-	=17-	=17-	=17-
*custos:g	*	*	*	*	*	*	*	*	*	*	*	*	*	*	*	*custos:dd	*	*	*	*	*	*	*	*	*	*	*	*	*	*	*
0c	-a;	-taſ,	-tris,	-ris,	-o,	-tum,	-to,	0g	-a	-tas	-tris	-ris	-o	-tum	.	0cc;<	-a,	-taſ,	-tris,	-ris,	-o,	-tu,	-raclito,	0ee;<	-a	-tas	-tris	-ris	-o	-tum	-is
!LO:PB:g=original	!	!	!	!	!	!	!	!LO:LB:g=original	!	!	!	!	!	!	!	!LO:PB:g=original	!	!	!	!	!	!	!	!LO:LB:g=original	!	!	!	!	!	!	!
=18||	=18||	=18||	=18||	=18||	=18||	=18||	=18||	=18||	=18||	=18||	=18||	=18||	=18||	=18||	=18||	=18||-	=18||-	=18||-	=18||-	=18||-	=18||-	=18||-	=18||-	=18||	=18||	=18||	=18||	=18||	=18||	=18||	=18||
1g	Que	Et	Ser-	Vir-	Vi-	Cre-	In	1g	Que	Et	Ser-	Vir-	Vi-	Cre-	.	1dd	que	et	ſer-	uir-	ui-	cre-	in	1dd	Que	Et	Ser-	Vir-	Vi-	Cre-	In
2c/	tu	ſpi-	-mo-	-tu-	-te-	-da-	ſe-	2e/	tu	Spi-	-mo-	-tu-	-te-	-da-	.	2cc\	tu	ſpi-	-mo-	-tu-	-te-	-da-	ſe-	2ee\	tu	ſpi-	-mo-	-tu-	-te-	-da-	ſe-
2c/	.	-ri-	-ne	-te	-muſ	-muſ	-cu-	2g\	cre-	-ri-	-ne	-te	-mus	-mus	.	2cc\	cre-	-ri-	-ne	-te	-muſ	-muſ	-cu-	2ee\	cre-	-ri-	-ne	-te	-mus	-mus	-cu-
=19-	=19-	=19-	=19-	=19-	=19-	=19-	=19-	=19-	=19-	=19-	=19-	=19-	=19-	=19-	=19-	=19-	=19-	=19-	=19-	=19-	=19-	=19-	=19-	=19-	=19-	=19-	=19-	=19-	=19-	=19-	=19-
4F/	cr[e]-	-ta-	di-	fir-	om-	om-	-lo-	1a	-a-	-ta-	di-	fir-	Om-	[O]m-	.	2.cc\	-a-	-ta-	[di]-	fir-	om-	om-	-lo-	1ff	-a-	-ta-	di-	fir-	Om-	Om-	-lo-
4G/	.	.	.	.	.	.	.	.	.	.	.	.	.	.	.	.	.	.	.	.	.	.	.	.	.	.	.	.	.	.	.
4A/	.	.	.	.	.	.	.	.	.	.	.	.	.	.	.	.	.	.	.	.	.	.	.	.	.	.	.	.	.	.	.
4B/	.	.	.	.	.	.	.	.	.	.	.	.	.	.	.	4dd\	.	.	.	.	.	.	.	.	.	.	.	.	.	.	.
2c/	-a-	.	.	.	.	.	.	2e,/	-ſti	-lis	-tans	-mans	-ne	-ni	.	2ee\	.	.	.	.	.	.	.	2ee,\	-ſti	-lis	-tans	-mans	-ne	-ni	-rum
2G,/	-ſtij,	-lis,	-tanſ	-manſ,	-ne	-ni	-rum	2g\	quae	Vn-	Ser-	vir-	vi-	Cre-	.	2b\	-ſti	-lis	-tans	-mans	-ne	-ni	-rum	2dd\	que	et	Ser-	Vir-	Vi-	Cre-	In
=20-	=20-	=20-	=20-	=20-	=20-	=20-	=20-	=20-	=20-	=20-	=20-	=20-	=20-	=20-	=20-	=20-	=20-	=20-	=20-	=20-	=20-	=20-	=20-	=20-	=20-	=20-	=20-	=20-	=20-	=20-	=20-
4d\	pe-	un-	gut-	per-	no-	tem-	ſe-	2a\	tu	-cti-	-mo-	-tu-	-te-	-da-	.	2a\	pe-	un-	gut-	per-	no-	tem-	ſe-	2dd\	tu	ſpi-	-mo-	-tu-	-te-	-da-	ſe-
4e\	.	.	.	.	.	.	.	.	.	.	.	.	.	.	.	.	.	.	.	.	.	.	.	.	.	.	.	.	.	.	.
4f\	-kto-	.	.	.	.	.	.	2a\	cre-	-o	-ne	-te	-mus	-mus	.	2a\	-cto-	-cti-	-tu-	-ti-	-xi-	-po-	-cu-	2dd\	cre-	-ri-	-ne	-te	-mus	-mus	-cu-
4g\	.	.	.	.	.	.	.	.	.	.	.	.	.	.	.	.	.	.	.	.	.	.	.	.	.	.	.	.	.	.	.
*	*	*	*	*	*	*	*	*	*	*	*	*	*	*	*	*	*	*	*	*	*	*	*	*lig	*	*	*	*	*	*	*
!	!	!	!	!	!	!	!	!	!	!	!	!	!	!	!	!LO:SIC:v:l:s=-re:6	!	!	!	!	!	!	!	!	!	!	!	!	!	!	!
2.a\	.	.	.	.	.	.	.	1a	-a-	Et	di-	fir-	Om-	Om-	.	1ee	-ra,	-o,	-ra	.	-um	-ra	-la	1ee	-a-	-ta-	di-	fir-	Om-	O-	-lo-
4a\	-ra	-c[t]i-	-tu-	-pe-	-xi-	-po-	-cu-	.	.	.	.	.	.	.	.	.	.	.	.	.	.	.	.	.	.	.	.	.	.	.	.
=21-	=21-	=21-	=21-	=21-	=21-	=21-	=21-	=21-	=21-	=21-	=21-	=21-	=21-	=21-	=21-	=21-	=21-	=21-	=21-	=21-	=21-	=21-	=21-	=21-	=21-	=21-	=21-	=21-	=21-	=21-	=21-
!	!	!	!	!	!	!	!	!	!	!	!	!	!	!	!	!	!	!	!	!	!	!	!	!LO:TX:t=P:problem=# below	!	!	!	!	!	!	!
1d,	que	-o,	-ra,	-ti,	-um,	-re,	-la,	1a	-ſti	Spi-	-tans	-mans	-ne	-ni	.	1dd	que	et	ſer-	-uir	ui-	cre-	in	1ff#X	.	.	.	.	.	.	.
*	*	*	*	*	*	*	*	*	*	*	*	*	*	*	*	*	*	*	*	*	*	*	*	*Xlig	*	*	*	*	*	*	*
1g	tu	et	-ſer-	-uir-	-ui-	-cre-	in	2g\	pec-	-ri-	gut-	per-	no-	tem-	.	1.dd	tu	ſpi-	-mo	tu	-te-	-da-	ſe-	2gg,\	-ſti	-lis	-tans	-mans	-ne	-mni	-rum
.	.	.	.	.	.	.	.	2d/	-to-	-ta-	-[t]u-	-pe-	-xi-	-po-	.	.	.	.	.	.	.	.	.	2.gg\	pe-	un-	gut-	per-	no-	tem-	ſe-
=22-	=22-	=22-	=22-	=22-	=22-	=22-	=22-	=22-	=22-	=22-	=22-	=22-	=22-	=22-	=22-	=22-	=22-	=22-	=22-	=22-	=22-	=22-	=22-	=22-	=22-	=22-	=22-	=22-	=22-	=22-	=22-
2d\	cre-	ſpi-	-mo-	-tu-	-te-	-da-	ſe-	1d	-ra	-lis	-ra	-ti	-um	-re	.	.	.	.	.	.	.	.	.	.	.	.	.	.	.	.	.
.	.	.	.	.	.	.	.	.	.	.	.	.	.	.	.	.	.	.	.	.	.	.	.	8ff#yX\L	.	.	.	.	.	.	.
.	.	.	.	.	.	.	.	.	.	.	.	.	.	.	.	.	.	.	.	.	.	.	.	8ee\J	.	.	.	.	.	.	.
!	!	!	!	!	!	!	!	!	!	!	!	!	!	!	!	!	!	!	!	!	!	!	!	!LO:TX:t=P:problem=# below	!	!	!	!	!	!	!
2d\	-a-	-ri-	-ne	-te	-muſ	-muſ	-cu-	.	.	.	.	.	.	.	.	2dd\	cre-	-ri-	-ne	te	muſ	-muſ	-cu-	2ff#X\	-cto-	-cti-	-tu-	-pe-	-xi-	-po-	-cu-
2g\	-sti	-ta-	di-	fir-	om-	om-	-lo-	2r	.	.	.	.	.	.	.	1dd	-a-	-ta-	di-	fir-	om-	om-	-lo-	2gg,\	-ra	-o	-ra	-ti	-um	-re	-la
2G/	pe-	-lis	-tanſ,	-manſ,	-ne,	-ni,	-rum,	2g\	quae	Et	Ser-	Vir-	Vi-	Cre-	.	.	.	.	.	.	.	.	.	2gg\	quae	Et	Ser-	Vir-	Vi-	Cre-	In
=23-	=23-	=23-	=23-	=23-	=23-	=23-	=23-	=23-	=23-	=23-	=23-	=23-	=23-	=23-	=23-	=23-	=23-	=23-	=23-	=23-	=23-	=23-	=23-	=23-	=23-	=23-	=23-	=23-	=23-	=23-	=23-
!	!	!	!	!	!	!	!	!	!	!	!	!	!	!	!	!	!	!	!	!	!	!	!	!LO:TX:t=P:problem=# below	!	!	!	!	!	!	!
1d	-kto-	et	-ſer-	uir-	ui-	cre-	in	2a\	tu	Spi-	-mo-	-tu-	-te-	-da-	.	1dd	-ſti	-lis	-tans	-manſ	-ne	-ni	-rum	2ff#X\	tu	ſpi-	-mo-	-tu-	-te-	-da-	ſe-
!	!	!	!	!	!	!	!	!	!	!	!	!	!	!	!	!	!	!	!	!	!	!	!	!LO:TX:t=P:problem=# below	!	!	!	!	!	!	!
.	.	.	.	.	.	.	.	2a\	cre-	-ri-	-ne	-te	-mus	-mus	.	.	.	.	.	.	.	.	.	2ff#X\	cre-	-ri-	-ne	-te	-mus	-mus	-cu-
2G,/	-ra	ſpi-	-mo-	-tu-	-te-	-da-	ſe-	1.g	-a-	-ta-	di-	fir-	om-	Om-	.	2dd\	pe-	un-	gu[t]-	per-	no-	tem-	ſe-	2.gg\	-a-	-ta-	di-	fir-	O-	O-	-lo-
2G/	pe-	-ri-	-ne	-te	-muſ	-muſ	-cu-	.	.	.	.	.	.	.	.	2b\	.	.	.	.	.	.	.	.	.	.	.	.	.	.	.
.	.	.	.	.	.	.	.	.	.	.	.	.	.	.	.	.	.	.	.	.	.	.	.	4ffny\	.	.	.	.	.	.	.
=24-	=24-	=24-	=24-	=24-	=24-	=24-	=24-	=24-	=24-	=24-	=24-	=24-	=24-	=24-	=24-	=24-	=24-	=24-	=24-	=24-	=24-	=24-	=24-	=24-	=24-	=24-	=24-	=24-	=24-	=24-	=24-
2c\	-kto-	-ta-	di-	fir-	om-	om-	-lo-	.	.	.	.	.	.	.	.	2cc\	-cto-	-cti-	-tu-	-pe-	-xi-	-po-	-cu-	2ee\	.	.	.	.	.	.	.
!	!	!	!	!	!	!	!	!	!	!	!	!	!	!	!	!LO:SIC:v:l:s=-re:6	!	!	!	!	!	!	!	!	!	!	!	!	!	!	!
2G/	-ra	-lis	-tanſ	-manſ	-ne	-ni	-rum	2g\	-ſti	-lis	-tans	-mans	-ne	-ni	.	2g/	-ra	-o	-ra	-ti	-um	-ra	-la	2dd,\	-ſti	lis	-tans	-mans	-mne	-mni	-rum
1.c	pe-	un-	gut-	per-	no-	tem-	ſe-	1.e	pe-	Vn-	gut-	per-	no-	Tem-	.	1.cc	pe-	un-	gu[t-	per-	no-	tem-	ſe-	1.ee	pe-	Vn-	gut-	per-	no-	tem-	ſe-
=25-	=25-	=25-	=25-	=25-	=25-	=25-	=25-	=25-	=25-	=25-	=25-	=25-	=25-	=25-	=25-	=25-	=25-	=25-	=25-	=25-	=25-	=25-	=25-	=25-	=25-	=25-	=25-	=25-	=25-	=25-	=25-
.	.	.	.	.	.	.	.	.	.	.	.	.	.	.	.	.	.	.	.	.	.	.	.	.	.	.	.	.	.	.	.
2c/	-cto-	-cti-	-tu-	-pe-	-xi-	-po-	-cula	2g\	-cto-	-cti-	-[t]u-	-pe-	-xi-	-po-	.	2cc\	-cto-	-[c]ti-	-tu]-	-pe-	-xi-	-po-	-cu-	2ee\	-cto-	-cti-	-tu-	-pe-	-[xi-	-po-	-cu-
00g;;	-ra,	-o,	-ra,	-ti	-um,	-re,	Amen	00g;	-ra	-o	-ra	-ti	-um	-re	.	00b;;	-ra,	-o,	-ra,	-ti,	-um,	-re,	-la,	00dd	-ra	-o	-ra	-ti	-um]	-re	-la
==	==	==	==	==	==	==	==	==	==	==	==	==	==	==	==	==	==	==	==	==	==	==	==	==	==	==	==	==	==	==	==
*-	*-	*-	*-	*-	*-	*-	*-	*-	*-	*-	*-	*-	*-	*-	*-	*-	*-	*-	*-	*-	*-	*-	*-	*-	*-	*-	*-	*-	*-	*-	*-
!!!system-decoration: [g1][g2]
!!!RDF**kern: > = above
!!!RDF**kern: < = below
!!!ENC: Katarzyna Serwa
!!!END: 2021-11-10
!!!ENC: Andrzej Gręziak
!!!END: 2021-10-29
